X:1
T:Peach Blossoms
T:Two Step
T:Maude Gilmore Comp. of Splinters
T:Copyright 1910 by Chas. L. Johnson &amp; Co.
T:Copyright 1910 by Chas. L. Johnson &amp; Co.
T:Copyright 1910 by Chas. L. Johnson &amp; Co.
T:Copyright 1910 by Chas. L. Johnson &amp; Co.
Z:Copyright 1910 by Chas. L. Johnson & Co.
%%score { 1 | 2 }
L:1/8
Q:1/4=90
M:2/4
K:C
V:1 treble nm="Piano" snm="Pno."
V:2 bass 
V:1
!ff!{gab} c'/^g/a/^f/ =g z |{GAB} c/^G/A/^F/ =G z | [DFG][DF^G]/[DFA]/- [DFA]/[DF^A]/[DFB] | %3
 [EGc] z [cec'] z |:!mf!{gab} !>![ec'][ec']/a/ [eb][eb]/^g/ | [ea][ea]/^f/ g/e/c/d/ | %6
 [ce][Be][Ae][_Ae] | [Ge]/d/c/[Gce]/- [Gce]2 |{gab} [ec'][ec']/a/ [eb][eb]/^g/ | %9
 [ea][ea]/^f/ [eg]g/a/ | [B^db][Bda][Bdg][Bd^f] | [Be]/^d/e/[B=fg]/- [Bfg]2 | %12
{gab} !>![ec'][ec']/a/ [eb][eb]/^g/ | [ea][ea]/^f/ g/e/c/d/ | [ce][Be][Ae][_Ae] | %15
 [Ge]/d/c/[Gce]/- [Gce]2 |{gab} !>!c'/^g/a/^f/ =g z |{GAB} c/^G/A/^F/ =G z | %18
 [Gg][^G^g]/[Aa]/- [Aa]/[^A^a]/[Bb] |1 [cc'] z [cec'] z :|2 [cc'][Gcg]/[Gcg]/ [Gcg][^Fc^f] |: %21
 [=FB=f][EBe] [FBf]2- | [FBf][^C^c][Dd][^D^d] | [Ece][^Dc^d] [Ece]2 |!ff! z [cec'][Beb][cec'] | %25
 [Bfb][^A^a]/[Bfb]/- [Bfb]2 | [Afa][^G^g]/[Afa]/- [Afa]2 | [Gcg][^Fc^f]/[Gcg]/- [Gcg]2 | %28
 z [Gcg][Gcg][^Fc^f] | [=FB=f][EBe] [FBf]2- | [FBf][^C^c][Dd][^D^d] | [Ece][^Dc^d] [Ece]2 | %32
 z [cc'][Bb][_B_b] | [Aa] [Ag]2 [Af] | [GBe]2 [FBd]2 |1 [Ec]4- | [Ec][Gcg]/[Gcg]/ [Gcg][^Fc^f] :|2 %37
 [Ec]4- | [Ec] z [cec'] z ||!mf!{gab} [ec'][ec']/a/ [eb][eb]/^g/ | [ea][ea]/^f/ g/e/c/d/ | %41
 [ce][Be][Ae][_Ae] | [Ge]/d/c/[Gce]/- [Gce]2 |{gab} [ec'][ec']/a/ [eb][eb]/^g/ | %44
 [ea][ea]/^f/ [eg]g/a/ | [B^db][Bda][Bdg][Bd^f] | [Be]/^d/e/[B=fg]/- [Bfg]2 | %47
{gab} !>![ec'][ec']/a/ [eb][eb]/^g/ | [ea][ea]/^f/ g/e/c/d/ | [ce][Be][Ae][_Ae] | %50
 [Ge]/d/c/[Gce]/- [Gce]2 |{gab} c'/^g/a/^f/ =g z |{GAB} c/^G/A/^F/ =G z | %53
 [Gg][^G^g]/[Aa]/- [Aa]/[^A^a]/[Bb] | [cec'] ||[K:F] [FA][GB][^G=B] || %56
!p! [Ac][ca]/[=B^g]/ [ca][Af]/[Ae]/ | [Af][Ac][Ad][Af] | [Bf]2 [Be]2- | [Be][^D^F][EG][EA] | %60
 [EB]2 [EBc]2 | [EBd]2 [EBe]2 | [FAd][FA_d] [FAc]2- | [FAc][FA][GB][^G=B] | %64
 [Ac][ca]/[=B^g]/ [ca][Af]/[Ae]/ | [Af][Ac][Ad][A^d] | [Ge]2 [EG]2- | [EG][Ge][^F^d][Ge] | %68
 [Af][FA][F^G][FA] | [Ge]2 [Fd]2 | [Ec]C/D/ EG | c[FA][GB][^G=B] | %72
 [Ac][ca]/[=B^g]/ [ca][Af]/[Ae]/ | [Af][Ac][Ad][Af] | [Bf]2 [Be]2- | [Be][^D^F][EG][EA] | %76
 [EB]2 [EBc]2 | [EBd]2 [EBe]2 | [FAd][FA_d] [FAc]2- | [FAc][FA][GB][^G=B] | %80
 [Ac][ca]/[=B^g]/ [ca][Af]/[Ae]/ | [Af][Ae][Af][A^f] | [Ba]2 [Bg]2- | [Bg][Bd][B^c][Bd] | %84
 [=Ba]/g/f/[Bd]/- [Bd]f/g/ | [=Ba]/g/f/[Bd]/- [Bd][Bfa] | [_Beg]4 | %87
 [Acf][cfc']/[cfc']/ [cfc'][=Bf=b] |:!ff! [_Be_b][Aea] [Beb]2- | [Beb][^F^f][Gg][^G^g] | %90
 [Afa][^Gf^g] [Afa]2 | z [faf'][eae'][faf'] | [ebe'][^db^d']/[ebe']/- [ebe']2 | %93
 [dbd'][^cb^c']/[dbd']/- [dbd']2 | [cfc'][=Bf=b]/[cfc']/- [cfc']2 | z [cfc'][cfc'][=Bf=b] | %96
 [Beb][Aea] [Beb]2- | [Beb][^F^f][Gg][^G^g] | [Afa][^Gf^g] [Afa]2 | z [ff'][ee'][_e_e'] | %100
 [dd'] [cc']2 [Bb] | [Aca]2 [Bdg]2 |1 [FAf]4- | [FAf][cfc']/[cfc']/ [cfc'][=Bf=b] :|2 [FAf]4- | %105
 [FAf] z !>![FAf] z |] %106
V:2
 z4 | z4 | [B,,B,][_B,,_B,]/[A,,A,]/- [A,,A,]/[_A,,_A,]/[G,,G,] | [C,,C,] z [C,,C,] z |: %4
 C,[G,CE] G,,[G,CE] | C,[G,CE] G,,[G,CE] | C,[G,CE] G,,[G,CE] | C,[G,CE] G,,[G,CE] | %8
 C,[G,CE] G,,[G,CE] | C,[G,CE] G,,[G,CE] | ^F,[A,B,^D] B,,[A,B,D] | E,[G,B,E] D,[G,B,F] | %12
 C,[G,CE] G,,[G,CE] | C,[G,CE] G,,[G,CE] | C,[G,CE] G,,[G,CE] | C,[G,CE] G,,[G,CE] | z4 | z4 | %18
 [B,,B,][_B,,_B,]/[A,,A,]/- [A,,A,]/[_A,,_A,]/[G,,G,] |1 [C,,C,] z [C,,C,] z :|2 %20
 [C,,C,][E,,E,]/[E,,E,]/ [E,,E,][^D,,^D,] |: D,[F,G,B,] G,,[F,G,B,] | D,[F,G,B,] G,,[F,G,B,] | %23
 C,[E,G,C] G,,[E,G,C] | C,[E,G,C] G,,[E,G,C] | D,[F,G,B,] G,,[F,G,B,] | %26
 D,[F,G,B,] [D,,D,][^D,,^D,] | [E,,E,][G,CE] [G,CE][G,,G,] | [C,,C,] z [E,,E,][^D,,^D,] | %29
 [=D,,=D,][F,G,B,] G,,[F,G,B,] | D,[F,G,B,] G,,[F,G,B,] | C,[E,G,C] G,,[E,G,C] | C,C,D,E, | %33
 F,[A,D] F,[A,D] | z [G,,G,][A,,A,][B,,B,] |1 C,G,/^F,/ G,E, | C,[E,,E,] [E,,E,][^D,,^D,] :|2 %37
 C,G,/^F,/ G,E, | C, z [C,,C,] z || C,[G,CE] G,,[G,CE] | C,[G,CE] G,,[G,CE] | C,[G,CE] G,,[G,CE] | %42
 C,[G,CE] G,,[G,CE] | C,[G,CE] G,,[G,CE] | C,[G,CE] G,,[G,CE] | ^F,[A,B,^D] B,,[A,B,D] | %46
 E,[G,B,E] D,[G,B,F] | C,[G,CE] G,,[G,CE] | C,[G,CE] G,,[G,CE] | C,[G,CE] G,,[G,CE] | %50
 C,[G,CE] G,,[G,CE] | z4 | z4 | [B,,B,][_B,,_B,]/[A,,A,]/- [A,,A,]/[_A,,_A,]/[G,,G,] | [C,,C,] || %55
[K:F] z z2 || F,[A,CF] C,[A,CF] | F,[A,CF] C,[A,CF] | G,[B,CE] C,[B,CE] | G,[B,C] C,[B,C] | %60
 G,[B,C] C,[B,C] | G,[B,C] C,[B,C] | F,[A,C] C,[A,C] | F,[A,C] C,[A,C] | F,[A,CF] C,[A,CF] | %65
 F,[A,CF] C,[A,CF] | z [C,C][B,,B,][A,,A,] | [G,,G,] z z2 | D,[F,A,D] A,,[F,A,D] | %69
 D,[F,G,=B,] G,,[F,G,B,] | C,C,/D,/ E,G, | C z z2 | F,[A,CF] C,[A,CF] | F,[A,CF] C,[A,CF] | %74
 G,[B,CE] C,[B,CE] | G,[B,C] C,[B,C] | G,[B,C] C,[B,C] | G,[B,C] C,[B,C] | F,[A,C] C,[A,C] | %79
 F,[A,C] C,[A,C] | F,[A,CF] C,[A,CF] | F,[A,CF] C,[A,CF] | G,[B,DG] D,[B,DG] | G,[B,DG] D,[B,DG] | %84
 D,[G,=B,F] G,,[G,B,F] | D,[G,=B,F] G,,[G,B,F] | [C,,C,][^C,,^C,][D,,D,][E,,E,] | %87
 [F,,F,][A,,A,] [A,,A,][_A,,_A,] |: [G,,G,][B,CE] C,[B,CE] | G,[B,CE] C,[B,CE] | %90
 F,[A,CF] C,[A,CF] | F,[A,CF] C,[A,CF] | G,[B,CE] C,[B,CE] | G,[B,CE] [G,,G,][^G,,^G,] | %94
 [A,,A,][A,CF] [A,CF][C,C] | [F,,F,][A,,A,] [A,,A,][_A,,_A,] | [G,,G,][B,CE] C,[B,CE] | %97
 G,[B,CE] C,[B,CE] | F,[A,CF] C,[A,CF] | F,[F,,F,][G,,G,][A,,A,] | G,[B,DG] D,[B,DG] | %101
 z [C,,C,][D,,D,][E,,E,] |1 [F,,F,]C,/=B,,/ C,A,, | F,,[A,,A,] [A,,A,][_A,,_A,] :|2 %104
 [F,,F,]C,/=B,,/ C,A,, | F,, z !>![F,,F,] z |] %106

